; G-Code generated by Simplify3D(R) Version 4.0.1
; Nov 11, 2019 at 10:36:41 AM
; Settings Summary
;   processName,LEO
;   applyToModels,Test02
;   profileName,LEO
;   profileVersion,2019-10-29 16:46:33
;   baseProfile,Default (modified)
;   printMaterial,PLA
;   printQuality,Medium
;   printExtruders,
;   extruderName,Primary Extruder
;   extruderToolheadNumber,0
;   extruderDiameter,0.4
;   extruderAutoWidth,1
;   extruderWidth,0.48
;   extrusionMultiplier,0.9
;   extruderUseRetract,1
;   extruderRetractionDistance,2
;   extruderExtraRestartDistance,0
;   extruderRetractionZLift,0
;   extruderRetractionSpeed,3000
;   extruderUseCoasting,0
;   extruderCoastingDistance,0.2
;   extruderUseWipe,0
;   extruderWipeDistance,5
;   primaryExtruder,0
;   layerHeight,0.2
;   topSolidLayers,3
;   bottomSolidLayers,3
;   perimeterOutlines,2
;   printPerimetersInsideOut,1
;   startPointOption,3
;   startPointOriginX,0
;   startPointOriginY,0
;   sequentialIslands,0
;   spiralVaseMode,0
;   firstLayerHeightPercentage,150
;   firstLayerWidthPercentage,100
;   firstLayerUnderspeed,0.5
;   useRaft,0
;   raftExtruder,0
;   raftTopLayers,3
;   raftBaseLayers,2
;   raftOffset,3
;   raftSeparationDistance,0.14
;   raftTopInfill,100
;   aboveRaftSpeedMultiplier,0.3
;   useSkirt,0
;   skirtExtruder,0
;   skirtLayers,1
;   skirtOutlines,2
;   skirtOffset,5
;   usePrimePillar,0
;   primePillarExtruder,999
;   primePillarWidth,12
;   primePillarLocation,7
;   primePillarSpeedMultiplier,1
;   useOozeShield,0
;   oozeShieldExtruder,999
;   oozeShieldOffset,2
;   oozeShieldOutlines,1
;   oozeShieldSidewallShape,1
;   oozeShieldSidewallAngle,30
;   oozeShieldSpeedMultiplier,1
;   infillExtruder,0
;   internalInfillPattern,Rectilinear
;   externalInfillPattern,Rectilinear
;   infillPercentage,20
;   outlineOverlapPercentage,25
;   infillExtrusionWidthPercentage,100
;   minInfillLength,5
;   infillLayerInterval,1
;   internalInfillAngles,45,-45
;   overlapInternalInfillAngles,0
;   externalInfillAngles,45,-45
;   generateSupport,0
;   supportExtruder,0
;   supportInfillPercentage,30
;   supportExtraInflation,0
;   supportBaseLayers,0
;   denseSupportExtruder,0
;   denseSupportLayers,0
;   denseSupportInfillPercentage,70
;   supportLayerInterval,1
;   supportHorizontalPartOffset,0.3
;   supportUpperSeparationLayers,1
;   supportLowerSeparationLayers,1
;   supportType,0
;   supportGridSpacing,4
;   maxOverhangAngle,45
;   supportAngles,0
;   temperatureName,Primary Extruder,Hotbed
;   temperatureNumber,0,0
;   temperatureSetpointCount,1,1
;   temperatureSetpointLayers,1,1
;   temperatureSetpointTemperatures,205,55
;   temperatureStabilizeAtStartup,1,1
;   temperatureHeatedBed,0,1
;   temperatureRelayBetweenLayers,0,0
;   temperatureRelayBetweenLoops,0,0
;   fanLayers,1,2
;   fanSpeeds,0,100
;   blipFanToFullPower,0
;   adjustSpeedForCooling,1
;   minSpeedLayerTime,15
;   minCoolingSpeedSlowdown,20
;   increaseFanForCooling,0
;   minFanLayerTime,45
;   maxCoolingFanSpeed,100
;   increaseFanForBridging,0
;   bridgingFanSpeed,100
;   use5D,1
;   relativeEdistances,0
;   allowEaxisZeroing,1
;   independentExtruderAxes,0
;   includeM10123,0
;   stickySupport,1
;   applyToolheadOffsets,0
;   gcodeXoffset,0
;   gcodeYoffset,0
;   gcodeZoffset,0
;   overrideMachineDefinition,1
;   machineTypeOverride,0
;   strokeXoverride,230
;   strokeYoverride,230
;   strokeZoverride,260
;   originOffsetXoverride,0
;   originOffsetYoverride,0
;   originOffsetZoverride,0
;   homeXdirOverride,-1
;   homeYdirOverride,-1
;   homeZdirOverride,-1
;   flipXoverride,1
;   flipYoverride,-1
;   flipZoverride,1
;   toolheadOffsets,0,0|0,0|0,0|0,0|0,0|0,0
;   overrideFirmwareConfiguration,0
;   firmwareTypeOverride,RepRap (Marlin/Repetier/Sprinter)
;   GPXconfigOverride,r2
;   baudRateOverride,115200
;   overridePrinterModels,0
;   printerModelsOverride
;   startingGcode,M140 S[bed0_temperature] ; Set bed temp and do not wait - preheat,M104 S150; Set extruder and do not wait - preheat,G28 ; home all axes,G29,G1 X10 Y2 Z20 F9000,M190 S[bed0_temperature] ; Set bed temp and wait to be reached,M109 S[extruder0_temperature] ; Set extruder temp and wait to be reached,G1 Z5 F2000 ; go down,G1 X30 Y2 F9000 ; go to front,G1 Z0.2 F3000 ; get ready to prime,G92 E0 ; reset extrusion distance,G1 X105 E15 F600 ; draw prime line,G92 E0 ; reset extrusion distance,G1 X145 F5000 ; quick wipe 
;   layerChangeGcode,
;   retractionGcode,
;   toolChangeGcode,
;   endingGcode,M104 S0 ; turn off extruder,M140 S0 ; turn off bed,M107 ; fan0 off,G28 X0 ;,M84 ; disable motors,
;   exportFileFormat,gcode
;   celebration,0
;   celebrationSong,Take On Me
;   postProcessing,
;   defaultSpeed,3600
;   outlineUnderspeed,0.5
;   solidInfillUnderspeed,0.8
;   supportUnderspeed,0.8
;   rapidXYspeed,7200
;   rapidZspeed,1002
;   minBridgingArea,50
;   bridgingExtraInflation,0
;   bridgingExtrusionMultiplier,1
;   bridgingSpeedMultiplier,1
;   useFixedBridgingAngle,0
;   fixedBridgingAngle,0
;   applyBridgingToPerimeters,0
;   filamentDiameters,1.75|1.75|1.75|1.75|1.75|1.75
;   filamentPricesPerKg,50|46|46|46|46|46
;   filamentDensities,1.25|1.25|1.25|1.25|1.25|1.25
;   useMinPrintHeight,0
;   minPrintHeight,0
;   useMaxPrintHeight,0
;   maxPrintHeight,20
;   useDiaphragm,0
;   diaphragmLayerInterval,20
;   robustSlicing,1
;   mergeAllIntoSolid,0
;   onlyRetractWhenCrossingOutline,1
;   retractBetweenLayers,1
;   useRetractionMinTravel,0
;   retractionMinTravel,3
;   retractWhileWiping,0
;   onlyWipeOutlines,1
;   avoidCrossingOutline,0
;   maxMovementDetourFactor,3
;   toolChangeRetractionDistance,12
;   toolChangeExtraRestartDistance,-0.5
;   toolChangeRetractionSpeed,600
;   externalThinWallType,0
;   internalThinWallType,2
;   thinWallAllowedOverlapPercentage,10
;   singleExtrusionMinLength,1
;   singleExtrusionMinPrintingWidthPercentage,50
;   singleExtrusionMaxPrintingWidthPercentage,200
;   singleExtrusionEndpointExtension,0.2
;   horizontalSizeCompensation,0
G90
M82
M106 S0
M140 S55 ; Set bed temp and do not wait - preheat
M104 S150; Set extruder and do not wait - preheat
G28 ; home all axes
G29
G1 X10 Y2 Z20 F9000
M190 S55 ; Set bed temp and wait to be reached
M109 S205 ; Set extruder temp and wait to be reached
G1 Z5 F2000 ; go down
G1 X30 Y2 F9000 ; go to front
G1 Z0.2 F3000 ; get ready to prime
G92 E0 ; reset extrusion distance
G1 X105 E15 F600 ; draw prime line
G92 E0 ; reset extrusion distance
G1 X145 F5000 ; quick wipe 
G92 E0
G1 E-2.0000 F3000
G1 Z0.300 F1002
; process LEO
; layer 1, Z = 0.300
T0
; tool H0.300 W0.480
; inner perimeter
G1 X96.975 Y91.975 F7200
G1 E0.0000 F900
G92 E0
G1 X97.486 Y91.539 E0.0362 F1350
G1 X98.058 Y91.188 E0.0723
G1 X98.678 Y90.932 E0.1085
G1 X99.331 Y90.775 E0.1447
G1 X100.020 Y90.721 E0.1819
G1 X139.972 Y90.720 E2.3346
G1 X140.669 Y90.775 E2.3723
G1 X141.322 Y90.932 E2.4084
G1 X141.942 Y91.188 E2.4446
G1 X142.514 Y91.539 E2.4808
G1 X143.025 Y91.975 E2.5170
G1 X143.461 Y92.486 E2.5531
G1 X143.811 Y93.058 E2.5893
G1 X144.068 Y93.678 E2.6255
G1 X144.225 Y94.331 E2.6616
G1 X144.279 Y95.020 E2.6989
G1 X144.280 Y134.972 E4.8515
G1 X144.225 Y135.669 E4.8892
G1 X144.068 Y136.322 E4.9254
G1 X143.811 Y136.942 E4.9616
G1 X143.461 Y137.514 E4.9977
G1 X143.025 Y138.025 E5.0339
G1 X142.514 Y138.461 E5.0701
G1 X141.942 Y138.811 E5.1062
G1 X141.322 Y139.068 E5.1424
G1 X140.669 Y139.225 E5.1786
G1 X139.980 Y139.279 E5.2158
G1 X100.028 Y139.280 E7.3685
G1 X99.331 Y139.225 E7.4062
G1 X98.678 Y139.068 E7.4423
G1 X98.058 Y138.811 E7.4785
G1 X97.486 Y138.461 E7.5147
G1 X96.975 Y138.025 E7.5508
G1 X96.539 Y137.514 E7.5870
G1 X96.188 Y136.942 E7.6232
G1 X95.932 Y136.322 E7.6594
G1 X95.775 Y135.669 E7.6955
G1 X95.721 Y134.980 E7.7328
G1 X95.720 Y95.028 E9.8854
G1 X95.775 Y94.331 E9.9231
G1 X95.932 Y93.678 E9.9593
G1 X96.188 Y93.058 E9.9955
G1 X96.539 Y92.486 E10.0316
G1 X96.975 Y91.975 E10.0678
; outer perimeter
G1 X96.635 Y91.635 F7200
G92 E0
G1 X97.203 Y91.150 E0.0402 F900
G1 X97.839 Y90.759 E0.0805
G1 X98.529 Y90.474 E0.1207
G1 X99.255 Y90.299 E0.1610
G1 X100.002 Y90.241 E0.2013
G1 X139.991 Y90.240 E2.3559
G1 X140.744 Y90.299 E2.3967
G1 X141.471 Y90.474 E2.4369
G1 X142.161 Y90.759 E2.4772
G1 X142.797 Y91.150 E2.5174
G1 X143.365 Y91.635 E2.5577
G1 X143.850 Y92.203 E2.5979
G1 X144.241 Y92.839 E2.6381
G1 X144.526 Y93.529 E2.6784
G1 X144.701 Y94.255 E2.7186
G1 X144.759 Y95.002 E2.7589
G1 X144.760 Y134.991 E4.9136
G1 X144.701 Y135.744 E4.9543
G1 X144.526 Y136.471 E4.9946
G1 X144.241 Y137.161 E5.0348
G1 X143.850 Y137.797 E5.0751
G1 X143.365 Y138.365 E5.1153
G1 X142.797 Y138.850 E5.1555
G1 X142.161 Y139.241 E5.1958
G1 X141.471 Y139.526 E5.2360
G1 X140.744 Y139.701 E5.2763
G1 X139.998 Y139.759 E5.3166
G1 X100.009 Y139.760 E7.4713
G1 X99.255 Y139.701 E7.5120
G1 X98.529 Y139.526 E7.5522
G1 X97.839 Y139.241 E7.5925
G1 X97.203 Y138.850 E7.6327
G1 X96.635 Y138.365 E7.6730
G1 X96.150 Y137.797 E7.7132
G1 X95.759 Y137.161 E7.7534
G1 X95.474 Y136.471 E7.7937
G1 X95.299 Y135.744 E7.8339
G1 X95.241 Y134.998 E7.8742
G1 X95.240 Y95.009 E10.0289
G1 X95.299 Y94.255 E10.0697
G1 X95.474 Y93.529 E10.1099
G1 X95.759 Y92.839 E10.1501
G1 X96.150 Y92.203 E10.1904
G1 X96.635 Y91.635 E10.2306
; inner perimeter
G1 X104.280 Y99.280 F7200
G92 E0
G1 X104.280 Y130.720 E1.6940 F1350
G1 X135.720 Y130.720 E3.3881
G1 X135.720 Y99.280 E5.0821
G1 X104.280 Y99.280 E6.7761
; outer perimeter
G1 X104.760 Y99.760 F7200
G92 E0
G1 X104.760 Y130.240 E1.6423 F900
G1 X135.240 Y130.240 E3.2846
G1 X135.240 Y99.760 E4.9269
G1 X104.760 Y99.760 E6.5692
; solid layer
G1 X104.854 Y131.080 F7200
G92 E0
G1 X112.694 Y138.920 E0.5974 F1440
G1 X113.373 Y138.920 E0.6340
G1 X105.533 Y131.080 E1.2314
G1 X106.212 Y131.080 E1.2679
G1 X114.052 Y138.920 E1.8653
G1 X114.730 Y138.920 E1.9019
G1 X106.891 Y131.080 E2.4993
G1 X107.569 Y131.080 E2.5359
G1 X115.409 Y138.920 E3.1333
G1 X116.088 Y138.920 E3.1698
G1 X108.248 Y131.080 E3.7672
G1 X108.927 Y131.080 E3.8038
G1 X116.767 Y138.920 E4.4012
G1 X117.446 Y138.920 E4.4378
G1 X109.606 Y131.080 E5.0351
G1 X110.285 Y131.080 E5.0717
G1 X118.124 Y138.920 E5.6691
G1 X118.803 Y138.920 E5.7057
G1 X110.964 Y131.080 E6.3031
G1 X111.642 Y131.080 E6.3396
G1 X119.482 Y138.920 E6.9370
G1 X120.161 Y138.920 E6.9736
G1 X112.321 Y131.080 E7.5710
G1 X113.000 Y131.080 E7.6076
G1 X120.840 Y138.920 E8.2049
G1 X121.519 Y138.920 E8.2415
G1 X113.679 Y131.080 E8.8389
G1 X114.358 Y131.080 E8.8755
G1 X122.197 Y138.920 E9.4729
G1 X122.876 Y138.920 E9.5094
G1 X115.037 Y131.080 E10.1068
G1 X115.715 Y131.080 E10.1434
G1 X123.555 Y138.920 E10.7408
G1 X124.234 Y138.920 E10.7773
G1 X116.394 Y131.080 E11.3747
G1 X117.073 Y131.080 E11.4113
G1 X124.913 Y138.920 E12.0087
G1 X125.591 Y138.920 E12.0452
G1 X117.752 Y131.080 E12.6426
G1 X118.431 Y131.080 E12.6792
G1 X126.270 Y138.920 E13.2766
G1 X126.949 Y138.920 E13.3131
G1 X119.109 Y131.080 E13.9105
G1 X119.788 Y131.080 E13.9471
G1 X127.628 Y138.920 E14.5445
G1 X128.307 Y138.920 E14.5810
G1 X120.467 Y131.080 E15.1784
G1 X121.146 Y131.080 E15.2150
G1 X128.985 Y138.920 E15.8124
G1 X129.664 Y138.920 E15.8489
G1 X121.825 Y131.080 E16.4463
G1 X122.504 Y131.080 E16.4829
G1 X130.343 Y138.920 E17.0803
G1 X131.022 Y138.920 E17.1168
G1 X123.182 Y131.080 E17.7142
G1 X123.861 Y131.080 E17.7508
G1 X131.701 Y138.920 E18.3482
G1 X132.380 Y138.919 E18.3847
G1 X124.540 Y131.080 E18.9821
G1 X125.219 Y131.080 E19.0187
G1 X133.058 Y138.919 E19.6160
G1 X133.737 Y138.919 E19.6526
G1 X125.898 Y131.080 E20.2500
G1 X126.576 Y131.080 E20.2866
G1 X134.416 Y138.919 E20.8839
G1 X135.095 Y138.919 E20.9205
G1 X127.255 Y131.080 E21.5179
G1 X127.934 Y131.080 E21.5544
G1 X135.774 Y138.919 E22.1518
G1 X136.452 Y138.919 E22.1884
G1 X128.613 Y131.080 E22.7857
G1 X129.292 Y131.080 E22.8223
G1 X137.131 Y138.919 E23.4197
G1 X137.810 Y138.919 E23.4563
G1 X129.971 Y131.080 E24.0536
G1 X130.649 Y131.080 E24.0902
G1 X138.489 Y138.919 E24.6876
G1 X139.168 Y138.919 E24.7241
G1 X131.328 Y131.080 E25.3215
G1 X132.007 Y131.080 E25.3581
G1 X139.846 Y138.919 E25.9554
G1 X139.965 Y138.919 E25.9618
G1 X140.484 Y138.879 E25.9899
G1 X132.686 Y131.080 E26.5841
G1 X133.365 Y131.080 E26.6207
G1 X141.049 Y138.764 E27.2062
G1 X141.210 Y138.725 E27.2152
G1 X141.548 Y138.585 E27.2349
G1 X134.044 Y131.080 E27.8068
G1 X134.722 Y131.080 E27.8433
G1 X141.998 Y138.355 E28.3977
G1 X142.302 Y138.169 E28.4170
G1 X142.403 Y138.082 E28.4241
G1 X135.401 Y131.080 E28.9577
G1 X136.080 Y131.080 E28.9943
G1 X142.769 Y137.769 E29.5040
G1 X143.082 Y137.403 E29.5300
G1 X136.080 Y130.401 E30.0635
G1 X136.080 Y129.722 E30.1001
G1 X143.355 Y136.998 E30.6545
G1 X143.490 Y136.778 E30.6683
G1 X143.585 Y136.548 E30.6817
G1 X136.080 Y129.044 E31.2536
G1 X136.080 Y128.365 E31.2902
G1 X143.764 Y136.048 E31.8757
G1 X143.868 Y135.613 E31.8998
G1 X143.879 Y135.484 E31.9068
G1 X136.080 Y127.686 E32.5010
G1 X136.080 Y127.007 E32.5376
G1 X143.920 Y134.847 E33.1350
G1 X143.920 Y134.168 E33.1716
G1 X136.080 Y126.328 E33.7690
G1 X136.080 Y125.649 E33.8056
G1 X143.920 Y133.489 E34.4030
G1 X143.920 Y132.811 E34.4395
G1 X136.080 Y124.971 E35.0370
G1 X136.080 Y124.292 E35.0735
G1 X143.920 Y132.132 E35.6709
G1 X143.920 Y131.453 E35.7075
G1 X136.080 Y123.613 E36.3049
G1 X136.080 Y122.934 E36.3415
G1 X143.920 Y130.774 E36.9389
G1 X143.920 Y130.095 E36.9755
G1 X136.080 Y122.255 E37.5729
G1 X136.080 Y121.576 E37.6094
G1 X143.920 Y129.416 E38.2068
G1 X143.920 Y128.738 E38.2434
G1 X136.080 Y120.898 E38.8408
G1 X136.080 Y120.219 E38.8774
G1 X143.920 Y128.059 E39.4748
G1 X143.920 Y127.380 E39.5114
G1 X136.080 Y119.540 E40.1088
G1 X136.080 Y118.861 E40.1453
G1 X143.920 Y126.701 E40.7427
G1 X143.920 Y126.022 E40.7793
G1 X136.080 Y118.182 E41.3767
G1 X136.080 Y117.504 E41.4133
G1 X143.920 Y125.343 E42.0107
G1 X143.920 Y124.665 E42.0473
G1 X136.080 Y116.825 E42.6447
G1 X136.080 Y116.146 E42.6812
G1 X143.920 Y123.986 E43.2786
G1 X143.920 Y123.307 E43.3152
G1 X136.080 Y115.467 E43.9126
G1 X136.080 Y114.788 E43.9492
G1 X143.920 Y122.628 E44.5466
G1 X143.920 Y121.949 E44.5831
G1 X136.080 Y114.109 E45.1805
G1 X136.080 Y113.431 E45.2171
G1 X143.920 Y121.270 E45.8145
G1 X143.920 Y120.592 E45.8511
G1 X136.080 Y112.752 E46.4485
G1 X136.080 Y112.073 E46.4850
G1 X143.920 Y119.913 E47.0824
G1 X143.920 Y119.234 E47.1190
G1 X136.080 Y111.394 E47.7164
G1 X136.080 Y110.715 E47.7530
G1 X143.920 Y118.555 E48.3504
G1 X143.920 Y117.876 E48.3869
G1 X136.080 Y110.036 E48.9843
G1 X136.080 Y109.358 E49.0209
G1 X143.920 Y117.197 E49.6183
G1 X143.920 Y116.519 E49.6549
G1 X136.080 Y108.679 E50.2522
G1 X136.080 Y108.000 E50.2888
G1 X143.920 Y115.840 E50.8862
G1 X143.920 Y115.161 E50.9228
G1 X136.080 Y107.321 E51.5202
G1 X136.080 Y106.642 E51.5567
G1 X143.920 Y114.482 E52.1541
G1 X143.920 Y113.803 E52.1907
G1 X136.080 Y105.964 E52.7881
G1 X136.080 Y105.285 E52.8247
G1 X143.920 Y113.124 E53.4220
G1 X143.920 Y112.446 E53.4586
G1 X136.080 Y104.606 E54.0560
G1 X136.080 Y103.927 E54.0926
G1 X143.920 Y111.767 E54.6899
G1 X143.920 Y111.088 E54.7265
G1 X136.080 Y103.248 E55.3239
G1 X136.080 Y102.569 E55.3605
G1 X143.920 Y110.409 E55.9579
G1 X143.920 Y109.730 E55.9944
G1 X136.080 Y101.891 E56.5918
G1 X136.080 Y101.212 E56.6284
G1 X143.920 Y109.051 E57.2258
G1 X143.920 Y108.373 E57.2623
G1 X136.080 Y100.533 E57.8597
G1 X136.080 Y99.854 E57.8963
G1 X143.920 Y107.694 E58.4937
G1 X143.920 Y107.015 E58.5302
G1 X136.080 Y99.175 E59.1276
G1 X142.373 Y91.892 F7200
G92 E0
G1 X143.108 Y92.627 E0.0560 F1440
G1 X143.169 Y92.698 E0.0610
G1 X143.490 Y93.222 E0.0942
G1 X143.725 Y93.790 E0.1273
G1 X143.767 Y93.965 E0.1370
G1 X141.035 Y91.233 E0.3451
G1 X140.613 Y91.132 E0.3685
G1 X140.224 Y91.101 E0.3895
G1 X143.899 Y94.776 E0.6695
G1 X143.919 Y95.035 E0.6835
G1 X143.919 Y95.475 E0.7072
G1 X139.525 Y91.080 E1.0421
G1 X138.846 Y91.080 E1.0787
G1 X143.919 Y96.154 E1.4653
G1 X143.919 Y96.832 E1.5019
G1 X138.167 Y91.080 E1.9402
G1 X137.488 Y91.080 E1.9768
G1 X143.919 Y97.511 E2.4668
G1 X143.919 Y98.190 E2.5034
G1 X136.809 Y91.080 E3.0452
G1 X136.131 Y91.080 E3.0818
G1 X143.919 Y98.869 E3.6753
G1 X143.919 Y99.548 E3.7119
G1 X135.452 Y91.080 E4.3571
